X:0544
T:Capt. Hillman's March.
M:C
L:1/8
Q:1/2=66
I: :: ::
Z:Jack Campin * www.campin.me.uk * 2009
K:D
 A/B/c    |d2d>d  d2 f>d     |e2e>e  e2 g>e     |f2f>f  f>ag>f|Te>dc>B A>GFE |
           d>AF>A d>fe>d     |ecAc   egTfe      |fadf   egde  |d2d>d   d2   ::
(d/e/f/g/)|a>gf>g aa b/a/g/f/|g>fe>f gg a/g/f/e/|f>ed>e f>agf | edcB   AGFE  |
           DFAd   fdAF       |EGBe   gecA       |a>ff>d g>ee>c|Td2     d>dd2:|
<end>
<start>
